X:EJ-11
T:Engels Pols
T:(Totakt-pols, nr. EJ-11)
S:efter Erik Jensen
R:Totakt-pols
B:Totakt-pols
O:Boes, Århus amt, Danmark
N:Fler låtar från Danmark...
M:2/4
L:1/8
K:G
|: g2 d2 | B3 d | ecAF | (GF) G2 | g2 d2 | B3 d | ecAF | G2 z2 :|
|: (DF)(AF) | (DG)(BG) | c3 B | d2 B2 | G3 B | G3 B | cA eF | G2 G,2 :|

